src/assets/snsIcon_y.svg

<svg width="20" height="20" viewBox="0 0 20 20" fill="none" xmlns="http://www.w3.org/2000/svg">
    <g clip-path="url(#clip0_501_647)">
        <path d="M19.5829 5.4224C19.4696 5.01843 19.249 4.65269 18.9445 4.36407C18.6314 4.06657 18.2477 3.85376 17.8295 3.74573C16.2645 3.33323 9.99454 3.33323 9.99454 3.33323C7.38065 3.30349 4.7674 3.4343 2.16954 3.7249C1.75136 3.84091 1.36834 4.05847 1.05454 4.35823C0.746204 4.6549 0.522871 5.02073 0.406204 5.42157C0.125949 6.93135 -0.0102189 8.46435 -0.000462243 9.9999C-0.0104622 11.5341 0.125371 13.0666 0.406204 14.5782C0.520371 14.9774 0.742871 15.3416 1.05204 15.6357C1.3612 15.9299 1.7462 16.1424 2.16954 16.2549C3.75537 16.6666 9.99454 16.6666 9.99454 16.6666C12.6118 16.6963 15.2283 16.5655 17.8295 16.2749C18.2477 16.1669 18.6314 15.9541 18.9445 15.6566C19.2489 15.368 19.4693 15.0022 19.582 14.5982C19.8696 13.089 20.0094 11.5554 19.9995 10.0191C20.0212 8.47624 19.8815 6.93537 19.5829 5.42157V5.4224ZM8.0012 12.8532V7.1474L13.2179 10.0007L8.0012 12.8532Z" fill="white"/>
    </g>
    <defs>
        <clipPath id="clip0_501_647">
            <rect width="20" height="20" fill="white"/>
        </clipPath>
    </defs>
</svg>

<svg xmlns="http://www.w3.org/2000/svg" width="20" height="20" fill="none"><g clip-path="url(#a)"><path fill="#fff" d="M19.583 5.422a2.322 2.322 0 0 0-.638-1.058 2.541 2.541 0 0 0-1.116-.618c-1.564-.413-7.834-.413-7.834-.413a63.854 63.854 0 0 0-7.825.392 2.633 2.633 0 0 0-1.115.633 2.414 2.414 0 0 0-.649 1.064A24.242 24.242 0 0 0 0 10c-.01 1.534.125 3.067.406 4.578.114.4.337.764.646 1.058.31.294.694.506 1.118.619 1.585.412 7.825.412 7.825.412 2.617.03 5.233-.102 7.835-.392.418-.108.801-.32 1.115-.618.304-.289.524-.655.637-1.059.288-1.509.427-3.043.418-4.579a22.148 22.148 0 0 0-.417-4.597ZM8 12.853V7.147l5.217 2.854L8 12.853Z"/></g><defs><clipPath id="a"><path fill="#fff" d="M0 0h20v20H0z"/></clipPath></defs></svg>
